media/img/apple_logo.svg

<svg fill="none" height="20" viewBox="0 0 18 20" width="18" xmlns="http://www.w3.org/2000/svg"><path clip-rule="evenodd" d="m12.2586 0c.1783 1.21489-.3143 2.40499-.965 3.24629-.6955.90362-1.8961 1.60235-3.05795 1.56599-.21179-1.16365.33167-2.36106.99236-3.16734.72435-.888697 1.96709-1.5711255 3.03059-1.64494zm.3903 4.68076c1.3552 0 2.79.74512 3.8112 2.02902-3.3473 1.85113-2.8051 6.67362.577 7.96482-.4647 1.0402-.6881 1.5037-1.2876 2.425-.8365 1.2848-2.0146 2.8862-3.4769 2.8976-.6011.0064-.9955-.176-1.4208-.3728-.4928-.228-1.02703-.4751-1.97252-.4698-.94065.0046-1.48353.2488-1.98315.4734-.43606.1961-.83916.3774-1.44501.3717-1.4612-.0126-2.5782-1.4575-3.41456-2.7426-2.337366-3.5912-2.584306-7.80745-1.142081-10.04997 1.026091-1.59241 2.644241-2.52378 4.163831-2.52378.80987 0 1.46264.23473 2.0847.45841.56616.20358 1.10688.39802 1.71746.39802.56505 0 1.02961-.17754 1.53633-.37119.6079-.23232 1.2765-.48783 2.2521-.48783z" fill="#fff" fill-rule="evenodd"/></svg>

<svg width="18" height="20" viewBox="0 0 18 20" fill="none" xmlns="http://www.w3.org/2000/svg">
<path fill-rule="evenodd" clip-rule="evenodd" d="M12.2586 0C12.4369 1.21489 11.9443 2.40499 11.2936 3.24629C10.5981 4.14991 9.3975 4.84864 8.23565 4.81228C8.02386 3.64863 8.56732 2.45122 9.22801 1.64494C9.95236 0.756243 11.1951 0.0738145 12.2586 0ZM12.6489 4.68076C14.0041 4.68076 15.4389 5.42588 16.4601 6.70978C13.1128 8.56091 13.655 13.3834 17.0371 14.6746C16.5724 15.7148 16.349 16.1783 15.7495 17.0996C14.913 18.3844 13.7349 19.9858 12.2726 19.9972C11.6715 20.0036 11.2771 19.8212 10.8518 19.6244C10.359 19.3964 9.82477 19.1493 8.87928 19.1546C7.93863 19.1592 7.39575 19.4034 6.89613 19.628C6.46007 19.8241 6.05697 20.0054 5.45112 19.9997C3.98992 19.9871 2.87292 18.5422 2.03656 17.2571C-0.300806 13.6659 -0.547746 9.44965 0.894479 7.20713C1.92057 5.61472 3.53872 4.68335 5.05831 4.68335C5.86818 4.68335 6.52095 4.91808 7.14301 5.14176C7.70917 5.34534 8.24989 5.53978 8.86047 5.53978C9.42552 5.53978 9.89008 5.36224 10.3968 5.16859C11.0047 4.93627 11.6733 4.68076 12.6489 4.68076Z" fill="white"/>
</svg>
